X:1
T:O LORD My Rock, in Desperation
T:Tune: Mary J. Hammond, 1920 Text under copyright; for copyrighted material see Psalter Hymnal 28
T:98 98 SPIRITUS VITAE www.hymnary.org/text/o_lord_my_rock_in_desperation
T:O LORD My Rock, in Desperation
T:This music is in the public domain. You may freely use this score for personal and congregational worship. If you reproduce the score, please credit Hymnary.org as the source. 
T:This music is in the public domain. You may freely use this score for personal and congregational worship. If you reproduce the score, please credit Hymnary.org as the source. 
Z:This music is in the public domain. You may freely use this score for personal and congregational worship. If you reproduce the score, please credit Hymnary.org as the source.
%%score ( 1 2 ) ( 3 4 )
L:1/8
M:4/4
K:D
V:1 treble nm="SOPRANO ALTO" snm="S. A."
V:2 treble 
V:3 bass nm="TENOR BASS" snm="T. B."
V:4 bass 
V:1
 d4 c2 A2 | B2 G2 F2 E2 | A4 A4 | D4 D2 E2 | F2 A2 F3 E | E8 | d4 c2 A2 | B2 G2 F2 E2 |1 A4 A4 | %9
 D4 D2 E2 | F2 A2 E3 D | D8 |] %12
V:2
 F4 F2 F2 | D2 D2 C2 C2 | E4 D4 | D4 C2 B,C | D2 F2 D2 D2 | (D4 C4) | D4 F2 F2 | D2 D2 C2 C2 |1 %8
 C4 D4 | D4 D2 B,C | D2 C2 D2 C2 | A,8 |] %12
V:3
 A,4 A,2 C2 | B,2 B,2 A,2 A,2 | A,4 A,4 | F,4 F,2 G,2 | A,2 C2 B,2 B,2 | A,8 | (F,2 B,2) A,2 C2 | %7
 B,2 B,2 A,2 A,2 |1 A,4 A,4 | B,4 A,2 G,2 | A,2 A,2 B,2 G,2 | F,8 |] %12
V:4
 D,4 F,2 F,2 | G,2 G,,2 A,,3 G,, | F,,4 F,,4 | B,,4 A,,2 G,,2 | F,,2 F,,2 G,,2 ^G,,2 | A,,8 | %6
 B,,4 F,2 F,2 | G,2 G,2 G,,2 G,,2 |1 G,4 F,4 | G,4 F,2 E,2 | D,2 F,,2 G,,2 A,,2 | D,8 |] %12

